X:1
T:Master of the Dance
C:David Kaynor
O:unknown
M:C|
L:1/8
K:D
"D"D2 DE F2 FE | DEFD "A"EA, (3A,A,A, | "D"D2 DE F2 ED | "A"CEAB AGFE | !
"D"D2 DE F2 FE | DEFD "A"EA, (3A,A,A, | "D"D2 DE F2 ED | "A"CEAB A4 :| 
"A"Acec "D"Adfd | "A"ecAG "D"FADF | "G"G2BG "Em"E2 B,D | "A"CDEC A,4 | !
"A"Acec "D"Adfd | "A"ecAG "D"FADF | "G"G2BG "Em"E2 B,D | "A"CDEC "D"D4 :| 
